synths/sDebt.svg

<svg width="42" height="42" viewBox="0 0 42 42" fill="none" xmlns="http://www.w3.org/2000/svg">
<g clip-path="url(#clip0_7277_57988)">
<mask id="mask0_7277_57988" style="mask-type:alpha" maskUnits="userSpaceOnUse" x="0" y="0" width="42" height="42">
<circle cx="21" cy="21" r="21" transform="matrix(-1 0 0 1 42 0)" fill="url(#paint0_linear_7277_57988)"/>
</mask>
<g mask="url(#mask0_7277_57988)">
<circle cx="21" cy="21" r="21" transform="matrix(-1 0 0 1 42 0)" fill="#34EDB3"/>
<circle cx="18.2" cy="18.2" r="18.2" transform="matrix(-1 0 0 1 39.2 2.80005)" fill="white"/>
</g>
<circle cx="16.1" cy="16.1" r="16.1" transform="matrix(-1 0 0 1 37.1 4.90002)" fill="#0B0B22"/>
<path fill-rule="evenodd" clip-rule="evenodd" d="M21 4.90002C29.8904 4.90002 37.1 12.1096 37.1 21C37.1 29.8904 29.8904 37.1 21 37.1C12.1096 37.1 4.90002 29.8904 4.90002 21C4.90002 12.1096 12.1096 4.90002 21 4.90002Z" fill="#0E052F"/>
<path d="M14.5118 19.7251C14.5118 18.9804 13.881 18.3933 13.1713 18.3933H8.88669V24.5266H13.1713C13.916 24.5266 14.5118 23.9045 14.5118 23.1948V19.7251ZM13.1713 23.0196C13.1713 23.2299 13.0048 23.4051 12.7945 23.4051H10.2185V19.5148H12.7945C13.0048 19.5148 13.1713 19.6901 13.1713 19.9004V23.0196Z" fill="white"/>
<path d="M20.7205 23.4051H16.9441V21.9682H20.0459V20.8466H16.9441V19.5148H20.7205V18.3933H15.6036V24.5266H20.7205V23.4051Z" fill="white"/>
<path d="M26.1002 18.3933H21.8156V24.5266H26.1002C26.845 24.5266 27.4408 23.9045 27.4408 23.1948V22.5552C27.4408 22.0996 27.2042 21.7053 26.8537 21.46C27.213 21.2146 27.4408 20.8116 27.4408 20.3647V19.7251C27.4408 18.9804 26.8099 18.3933 26.1002 18.3933ZM26.1002 20.5137C26.1002 20.724 25.9337 20.8992 25.7234 20.8992H23.1474V19.5148H25.7234C26.1177 19.5148 26.1002 19.9091 26.1002 20.207V20.5137ZM26.1002 23.0196C26.1002 23.2299 25.9337 23.3964 25.7234 23.3964H23.1474V22.0207H25.7234C25.9337 22.0207 26.1002 22.196 26.1002 22.3975V23.0196Z" fill="white"/>
<path d="M33.7897 18.3933H28.1382V19.5148H30.3024V24.5266H31.6342V19.5148H33.7897V18.3933Z" fill="white"/>
</g>
<defs>
<linearGradient id="paint0_linear_7277_57988" x1="21" y1="0" x2="21" y2="61.4091" gradientUnits="userSpaceOnUse">
<stop stop-color="#08021E"/>
<stop offset="1" stop-color="#1F0777"/>
</linearGradient>
<clipPath id="clip0_7277_57988">
<rect width="42" height="42" fill="white"/>
</clipPath>
</defs>
</svg>

<svg xmlns="http://www.w3.org/2000/svg" width="42" height="42" fill="none"><g clip-path="url(#a)"><mask id="c" width="42" height="42" x="0" y="0" maskUnits="userSpaceOnUse" style="mask-type:alpha"><circle cx="21" cy="21" r="21" fill="url(#b)" transform="matrix(-1 0 0 1 42 0)"/></mask><g mask="url(#c)"><circle cx="21" cy="21" r="21" fill="#34EDB3" transform="matrix(-1 0 0 1 42 0)"/><circle cx="18.2" cy="18.2" r="18.2" fill="#fff" transform="matrix(-1 0 0 1 39.2 2.8)"/></g><circle cx="16.1" cy="16.1" r="16.1" fill="#0B0B22" transform="matrix(-1 0 0 1 37.1 4.9)"/><path fill="#0E052F" fill-rule="evenodd" d="M21 4.9c8.89 0 16.1 7.21 16.1 16.1S29.89 37.1 21 37.1 4.9 29.89 4.9 21 12.11 4.9 21 4.9Z" clip-rule="evenodd"/><path fill="#fff" d="M14.512 19.725c0-.745-.631-1.332-1.34-1.332H8.886v6.134h4.284a1.35 1.35 0 0 0 1.34-1.332v-3.47Zm-1.34 3.295c0 .21-.167.385-.378.385H10.22v-3.89h2.575c.21 0 .377.175.377.385v3.12ZM20.72 23.405h-3.776v-1.437h3.102v-1.121h-3.102v-1.332h3.777v-1.122h-5.117v6.134h5.117v-1.122ZM26.1 18.393h-4.284v6.134H26.1a1.35 1.35 0 0 0 1.34-1.332v-.64c0-.455-.236-.85-.586-1.095.359-.245.587-.648.587-1.095v-.64c0-.745-.631-1.332-1.34-1.332Zm0 2.12c0 .211-.166.386-.377.386h-2.576v-1.384h2.576c.395 0 .377.394.377.692v.307Zm0 2.507c0 .21-.166.376-.377.376h-2.576v-1.375h2.576a.38.38 0 0 1 .377.377v.622ZM33.79 18.393h-5.652v1.122h2.164v5.012h1.332v-5.012h2.156v-1.122Z"/></g><defs><linearGradient id="b" x1="21" x2="21" y1="0" y2="61.409" gradientUnits="userSpaceOnUse"><stop stop-color="#08021E"/><stop offset="1" stop-color="#1F0777"/></linearGradient><clipPath id="a"><path fill="#fff" d="M0 0h42v42H0z"/></clipPath></defs></svg>
